X:18710
T:Whistler from Rosslea
M:C
L:1/8
C:Ed Reavey
S:APB Martin Hayes
R:Reel
K:Cm
CDEF G2FD|G2FD E(3CCC|B,CDE F2EF|GAFG EFDE|
CDEC DEFD|G=ABG cBGF|EFGE FADF|ECDB, C4:||
:c2Gc EcGc|c2dc cBG=A|B2FBDBFB|B=AGF ECB,C|
GccB cBGF|EFG=A B3c|cBGF EFFE|FB,DB, C4:||
 


